X: 2027
T: Minuet.
%R: minuet, walt
B: Henry Playford "Apollo's Banquet", London 1687 (5th Edition)
F: https://archive.org/details/apollosbanquetco01rugg
Z: 2017 John Chambers <jc:trillian.mit.edu>
M: 3/2
L: 1/8
K: C
% - - - - - - - - - -
|:\
g4g2 | g4g2 | a2^g4 | a4g2 |\
a2e4 | f4c2 | f2d4 | c6 ::\
e4e2 | e4e2 | f2e4 | d4d2 |\
c2d3(c/d/) | e3dc2 | d2B4 | c6 |]
% - - - - - - - - - -

%%sep 1 1 500
%%sep 1 1 500

